packages/core/src/svgs/ghst.svg

<svg width="24" height="24" viewBox="0 0 24 24" fill="none" xmlns="http://www.w3.org/2000/svg">
<g clip-path="url(#clip0_31_10775)">
<path d="M0 0H24V24H0V0Z" fill="#F0F3FA"/>
<path d="M7.71429 7.71436H16.2857V11.5715H7.71429V7.71436Z" fill="#F934F3"/>
<path d="M8.14288 10.7144H9.85717V11.1429H8.14288V10.7144Z" fill="white"/>
<path d="M9.42859 5.14307H14.5714V6.00021H9.42859V5.14307Z" fill="#1F0448"/>
<path d="M9.42859 6H14.5714V6.85714H9.42859V6Z" fill="#FB74F7"/>
<path d="M7.71426 6H9.42855V6.85714H7.71426V6ZM14.5714 6H16.2857V6.85714H14.5714V6ZM14.5714 17.1429H16.2857V18H14.5714V17.1429ZM7.71426 17.1429H9.42855V18H7.71426V17.1429ZM16.2857 6.85714H17.1428V7.71429H16.2857V6.85714ZM6.85712 6.85714H7.71426V7.71429H6.85712V6.85714Z" fill="#1F0448"/>
<path d="M8.57141 6.85693H9.42855V7.71408H8.57141V6.85693Z" fill="#FB74F7"/>
<path d="M8.57141 7.71436H9.42855V8.5715H8.57141V7.71436Z" fill="#B400EF"/>
<path d="M7.71429 14.1431H16.2857V15.4704H7.71429V14.1431Z" fill="#8E16F8"/>
<path d="M15.4286 7.71436H14.5714V8.5715H15.4286V7.71436Z" fill="#FDB6FA"/>
<path d="M15.4286 6.85693H14.5714V7.71408H15.4286V6.85693Z" fill="#FB74F7"/>
<path d="M7.71429 8.57129H8.57144V9.42843H7.71429V8.57129Z" fill="#B400EF"/>
<path d="M16.2857 8.57129H15.4286V9.42843H16.2857V8.57129Z" fill="#FDB6FA"/>
<path d="M15.4286 16.2856H14.5714V17.1428H15.4286V16.2856Z" fill="#FB74F7"/>
<path d="M15.4286 15.4284H14.5714V16.2856H15.4286V15.4284ZM16.2857 14.5713H15.4286V15.4284H16.2857V14.5713Z" fill="#FDB6FA"/>
<path d="M9.42855 15.4287H8.57141V16.2859H9.42855V15.4287Z" fill="#B400EF"/>
<path d="M7.71429 12.8569H16.2857V14.1426H7.71429V12.8569Z" fill="#AC14F8"/>
<path d="M7.71429 11.5713H16.2857V12.857H7.71429V11.5713Z" fill="#CF14F8"/>
<path d="M8.57144 14.5713H7.71429V15.4284H8.57144V14.5713Z" fill="#B400EF"/>
<path d="M9.42855 16.2856H8.57141V17.1428H9.42855V16.2856Z" fill="#FB74F7"/>
<path d="M16.2857 16.2858H17.1429V17.1429H16.2857V16.2858ZM6.85717 16.2858H7.71431V17.1429H6.85717V16.2858ZM17.1429 7.71436H18V9.42864H17.1429V7.71436ZM6.00003 7.71436H6.85717V9.42864H6.00003V7.71436ZM17.1429 14.5715H18V16.2858H17.1429V14.5715ZM6.00003 14.5715H6.85717V16.2858H6.00003V14.5715ZM18 9.42864H18.8572V14.5715H18V9.42864ZM5.14288 9.42864H6.00003V14.5715H5.14288V9.42864Z" fill="#1F0448"/>
<path d="M6 9.42871H6.85714V14.5716H6V9.42871Z" fill="#FB74F7"/>
<path d="M16.2857 9.42871H17.1428V14.5716H16.2857V9.42871Z" fill="#FDB6FA"/>
<path d="M6.85712 9.42871H7.71426V14.5716H6.85712V9.42871Z" fill="#B400EF"/>
<path d="M17.1428 9.42836H18V14.5712H17.1428V9.42836ZM6.85712 7.71408H7.71426V9.42836H6.85712V7.71408ZM7.71426 6.85822H8.5714V8.57251H7.71426V6.85822ZM15.4285 6.85693H16.2857V8.57122H15.4285V6.85693ZM16.2857 7.71408H17.1428V9.42836H16.2857V7.71408ZM16.2857 14.5712H17.1428V16.2855H16.2857V14.5712ZM6.85712 14.5712H7.71426V16.2855H6.85712V14.5712ZM7.71426 15.4284H8.5714V17.1426H7.71426V15.4284ZM15.4285 15.4284H16.2857V17.1426H15.4285V15.4284Z" fill="#FB74F7"/>
<path d="M9.42859 6.85693H14.5714V7.71408H9.42859V6.85693Z" fill="#B400EF"/>
<path d="M9.42859 18H14.5714V18.8571H9.42859V18Z" fill="#1F0448"/>
<path d="M9.42859 17.1431H14.5714V18.0002H9.42859V17.1431Z" fill="#FB74F7"/>
<path d="M9.42859 16.2856H14.5714V17.1428H9.42859V16.2856Z" fill="#FDB6FA"/>
<path d="M9.42859 15.4287H14.5714V16.2859H9.42859V15.4287Z" fill="#7D17F8"/>
<path d="M7.71429 12.8571V11.1428H8.14287V12.8571H7.71429ZM10.0714 13.2856V10.7142H10.5V13.2856H10.0714ZM11.5714 13.2856V10.7142H12V13.2856H11.5714ZM15.129 13.2856V10.7142H15.5576V13.2856H15.129ZM9.42858 12.8571V11.9999H9.85715V12.8571H9.42858ZM12.2143 11.7856V11.1419H12.6429V11.7856H12.2143ZM13.7143 12.8571V12.2142H14.1429V12.8571H13.7143ZM13.0714 10.7142V10.2856H13.5V10.7142H13.0714ZM13.0714 13.7142V13.2856H13.5V13.7142H13.0714Z" fill="white"/>
<path d="M8.57145 11.7858H9.85717V12.2144H8.57145V11.7858ZM10.5 11.7858H11.5715V12.2144H10.5V11.7858ZM14.3572 10.7144H16.2857V11.1429H14.3572V10.7144ZM12.6429 10.7144H14.1429V11.1429H12.6429V10.7144ZM12.6429 11.7858H13.7143V12.2144H12.6429V11.7858ZM12.2143 12.8572H13.7143V13.2858H12.2143V12.8572ZM8.14288 12.8572H9.4286V13.2858H8.14288V12.8572Z" fill="white"/>
</g>
<defs>
<clipPath id="clip0_31_10775">
<rect width="24" height="24" fill="white"/>
</clipPath>
</defs>
</svg>

<svg xmlns="http://www.w3.org/2000/svg" width="24" height="24" fill="none" viewBox="0 0 24 24"><g clip-path="url(#a)"><path fill="#F0F3FA" d="M0 0h24v24H0z"/><path fill="#F934F3" d="M7.714 7.714h8.572v3.858H7.714z"/><path fill="#fff" d="M8.143 10.714h1.714v.429H8.143z"/><path fill="#1F0448" d="M9.429 5.143h5.142V6H9.43z"/><path fill="#FB74F7" d="M9.429 6h5.142v.857H9.43z"/><path fill="#1F0448" d="M7.714 6H9.43v.857H7.714zm6.857 0h1.715v.857H14.57zm0 11.143h1.715V18H14.57zm-6.857 0H9.43V18H7.714zm8.572-10.286h.857v.857h-.857zm-9.429 0h.857v.857h-.857z"/><path fill="#FB74F7" d="M8.571 6.857h.858v.857H8.57z"/><path fill="#B400EF" d="M8.571 7.714h.858v.857H8.57z"/><path fill="#8E16F8" d="M7.714 14.143h8.572v1.327H7.714z"/><path fill="#FDB6FA" d="M15.429 7.714h-.858v.857h.858z"/><path fill="#FB74F7" d="M15.429 6.857h-.858v.857h.858z"/><path fill="#B400EF" d="M7.714 8.571h.857v.857h-.857z"/><path fill="#FDB6FA" d="M16.286 8.571h-.857v.857h.857z"/><path fill="#FB74F7" d="M15.429 16.286h-.858v.857h.858z"/><path fill="#FDB6FA" d="M15.429 15.428h-.858v.858h.858zm.857-.857h-.857v.857h.857z"/><path fill="#B400EF" d="M9.429 15.429H8.57v.857h.858z"/><path fill="#AC14F8" d="M7.714 12.857h8.572v1.286H7.714z"/><path fill="#CF14F8" d="M7.714 11.571h8.572v1.286H7.714z"/><path fill="#B400EF" d="M8.571 14.571h-.857v.857h.857z"/><path fill="#FB74F7" d="M9.429 16.286H8.57v.857h.858z"/><path fill="#1F0448" d="M16.286 16.286h.857v.857h-.857zm-9.429 0h.857v.857h-.857zm10.286-8.572H18V9.43h-.857zM6 7.714h.857V9.43H6zm11.143 6.858H18v1.714h-.857zM6 14.572h.857v1.714H6zm12-5.143h.857v5.143H18zm-12.857 0H6v5.143h-.857z"/><path fill="#FB74F7" d="M6 9.429h.857v5.143H6z"/><path fill="#FDB6FA" d="M16.286 9.429h.857v5.143h-.857z"/><path fill="#B400EF" d="M6.857 9.429h.857v5.143h-.857z"/><path fill="#FB74F7" d="M17.143 9.428H18v5.143h-.857zM6.857 7.714h.857v1.714h-.857zm.857-.856h.857v1.715h-.857zm7.714-.001h.858V8.57h-.858zm.858.857h.857v1.714h-.857zm0 6.857h.857v1.714h-.857zm-9.429 0h.857v1.714h-.857zm.857.857h.857v1.715h-.857zm7.714 0h.858v1.715h-.858z"/><path fill="#B400EF" d="M9.429 6.857h5.142v.857H9.43z"/><path fill="#1F0448" d="M9.429 18h5.142v.857H9.43z"/><path fill="#FB74F7" d="M9.429 17.143h5.142V18H9.43z"/><path fill="#FDB6FA" d="M9.429 16.286h5.142v.857H9.43z"/><path fill="#7D17F8" d="M9.429 15.429h5.142v.857H9.43z"/><path fill="#fff" d="M7.714 12.857v-1.714h.429v1.714zm2.357.429v-2.572h.429v2.572zm1.5 0v-2.572H12v2.572zm3.558 0v-2.572h.429v2.572zm-5.7-.429V12h.428v.857zm2.785-1.071v-.644h.429v.644zm1.5 1.071v-.643h.429v.643zm-.643-2.143v-.428h.429v.428zm0 3v-.428h.429v.428z"/><path fill="#fff" d="M8.571 11.786h1.286v.428H8.571zm1.929 0h1.072v.428H10.5zm3.857-1.072h1.929v.429h-1.929zm-1.714 0h1.5v.429h-1.5zm0 1.072h1.071v.428h-1.071zm-.429 1.071h1.5v.429h-1.5zm-4.071 0h1.286v.429H8.143z"/></g><defs><clipPath id="a"><path fill="#fff" d="M0 0h24v24H0z"/></clipPath></defs></svg>
